svg/fluentui-system-icons/ic_fluent_arrow_redo_48_regular.svg

<svg width="48" height="48" viewBox="0 0 48 48" fill="none" xmlns="http://www.w3.org/2000/svg">
<path d="M12.1502 9.83982C16.3238 5.23784 23.4529 5.33466 28.0052 10.5101L28.0222 10.5294L36.5807 19.4882H24.2011C23.5108 19.4882 22.9511 20.0478 22.9511 20.7382C22.9511 21.4285 23.5108 21.9882 24.2011 21.9882H39.746C40.4363 21.9882 40.996 21.4285 40.996 20.7382V5.26886C40.996 4.5785 40.4363 4.01886 39.746 4.01886C39.0556 4.01886 38.496 4.5785 38.496 5.26886V17.8739L29.865 8.83922C24.4158 2.66488 15.5582 2.36064 10.2984 8.16035C5.05847 13.9381 6.67636 21.4757 10.3123 25.3549L10.3215 25.3648L19.3005 34.5376L19.3056 34.5428L28.0556 43.3796L28.0599 43.384L28.3109 43.6349C28.799 44.1231 29.5905 44.1231 30.0786 43.6349C30.5668 43.1468 30.5668 42.3553 30.0786 41.8672L29.832 41.6206L29.8277 41.6162L21.0871 32.7889L21.082 32.7837L12.1274 23.6357C9.2087 20.5121 7.95538 14.4652 12.1502 9.83982Z" fill="#212121"/>
</svg>

<svg xmlns="http://www.w3.org/2000/svg" width="48" height="48"><path d="M12.15 9.84c4.174-4.602 11.303-4.505 15.855.67l.017.02 8.559 8.958H24.2a1.25 1.25 0 0 0 0 2.5h15.545c.69 0 1.25-.56 1.25-1.25V5.268a1.25 1.25 0 0 0-2.5 0v12.606l-8.631-9.035c-5.45-6.174-14.307-6.478-19.567-.679-5.24 5.778-3.622 13.316.014 17.195l.01.01 8.979 9.173.005.005 8.75 8.837.004.004.25.25a1.25 1.25 0 1 0 1.769-1.767l-.247-.246-.004-.005-8.74-8.827-.006-.005-8.955-9.148c-2.918-3.124-4.172-9.17.023-13.796Z"/></svg>
